src/assets/beer-tap-icon.svg

<svg width="26" height="26" class="iconPrimary" viewBox="0 0 26 26" fill="none" xmlns="http://www.w3.org/2000/svg">
<path d="M2.82393 21.9375C2.68824 23.0202 2.59887 23.9915 2.54199 24.7812H10.914C11.1833 23.9346 11.4653 22.973 11.7318 21.9375H2.82393Z" fill="currentColor"/>
<path d="M21.5312 0.8125H19.0938C18.5552 0.813145 18.0389 1.02736 17.6582 1.40815C17.2774 1.78895 17.0631 2.30523 17.0625 2.84375V24.7812C17.0625 24.889 17.1053 24.9923 17.1815 25.0685C17.2577 25.1447 17.361 25.1875 17.4688 25.1875H23.1562C23.264 25.1875 23.3673 25.1447 23.4435 25.0685C23.5197 24.9923 23.5625 24.889 23.5625 24.7812V2.84375C23.5619 2.30523 23.3476 1.78895 22.9668 1.40815C22.5861 1.02736 22.0698 0.813145 21.5312 0.8125Z" fill="currentColor"/>
<path d="M9.74984 1.21875C9.54581 1.21879 9.34411 1.26202 9.15799 1.3456C8.97188 1.42918 8.80556 1.55121 8.66999 1.70367C8.53441 1.85613 8.43265 2.03557 8.37139 2.23017C8.31013 2.42478 8.29076 2.63015 8.31455 2.83278L8.93734 8.125H10.5623L11.1851 2.83278C11.2089 2.63015 11.1895 2.42478 11.1283 2.23017C11.067 2.03557 10.9653 1.85613 10.8297 1.70367C10.6941 1.55121 10.5278 1.42918 10.3417 1.3456C10.1556 1.26202 9.95386 1.21879 9.74984 1.21875Z" fill="currentColor"/>
<path d="M15.8438 13H6.09375C5.77052 13 5.46052 12.8716 5.23196 12.643C5.0034 12.4145 4.875 12.1045 4.875 11.7812V10.5625C4.875 10.2393 5.0034 9.92927 5.23196 9.70071C5.46052 9.47215 5.77052 9.34375 6.09375 9.34375H8.125C8.23274 9.34375 8.33608 9.38655 8.41226 9.46274C8.48845 9.53892 8.53125 9.64226 8.53125 9.75C8.53125 9.85774 8.48845 9.96108 8.41226 10.0373C8.33608 10.1134 8.23274 10.1562 8.125 10.1562H6.09375C5.98601 10.1562 5.88267 10.1991 5.80649 10.2752C5.7303 10.3514 5.6875 10.4548 5.6875 10.5625V11.7812C5.6875 11.889 5.7303 11.9923 5.80649 12.0685C5.88267 12.1447 5.98601 12.1875 6.09375 12.1875H15.8438C15.9515 12.1875 16.0548 12.2303 16.131 12.3065C16.2072 12.3827 16.25 12.486 16.25 12.5938C16.25 12.7015 16.2072 12.8048 16.131 12.881C16.0548 12.9572 15.9515 13 15.8438 13Z" fill="#EFEFEF"/>
<path d="M15.8438 10.1562H9.75C9.64226 10.1562 9.53892 10.1134 9.46274 10.0373C9.38655 9.96108 9.34375 9.85774 9.34375 9.75C9.34375 9.64226 9.38655 9.53892 9.46274 9.46274C9.53892 9.38655 9.64226 9.34375 9.75 9.34375H15.8438C15.9515 9.34375 16.0548 9.38655 16.131 9.46274C16.2072 9.53892 16.25 9.64226 16.25 9.75C16.25 9.85774 16.2072 9.96108 16.131 10.0373C16.0548 10.1134 15.9515 10.1562 15.8438 10.1562Z" fill="#EFEFEF"/>
<path d="M11.375 10.1562C11.2673 10.1562 11.1639 10.1134 11.0877 10.0373C11.0116 9.96108 10.9688 9.85774 10.9688 9.75V8.9375C10.9688 8.82976 10.9259 8.72642 10.8498 8.65024C10.7736 8.57405 10.6702 8.53125 10.5625 8.53125H8.9375C8.82976 8.53125 8.72642 8.57405 8.65024 8.65024C8.57405 8.72642 8.53125 8.82976 8.53125 8.9375V9.75C8.53125 9.85774 8.48845 9.96108 8.41226 10.0373C8.33608 10.1134 8.23274 10.1562 8.125 10.1562C8.01726 10.1562 7.91392 10.1134 7.83774 10.0373C7.76155 9.96108 7.71875 9.85774 7.71875 9.75V8.9375C7.71875 8.61427 7.84715 8.30427 8.07571 8.07571C8.30427 7.84715 8.61427 7.71875 8.9375 7.71875H10.5625C10.8857 7.71875 11.1957 7.84715 11.4243 8.07571C11.6528 8.30427 11.7812 8.61427 11.7812 8.9375V9.75C11.7812 9.85774 11.7384 9.96108 11.6623 10.0373C11.5861 10.1134 11.4827 10.1562 11.375 10.1562Z" fill="#EFEFEF"/>
<path d="M10.5627 17.4689H8.93768C8.83598 17.4693 8.73782 17.4316 8.66261 17.3631C8.58739 17.2947 8.54058 17.2005 8.53143 17.0992L8.12518 12.6305C8.11548 12.5227 8.14898 12.4156 8.21831 12.3325C8.28764 12.2495 8.38712 12.1974 8.49487 12.1877C8.60261 12.178 8.70979 12.2115 8.79284 12.2808C8.87588 12.3501 8.92798 12.4496 8.93768 12.5574L9.30858 16.6564H10.1918L10.5627 12.5574C10.5675 12.504 10.5827 12.4521 10.6076 12.4047C10.6324 12.3572 10.6664 12.3151 10.7075 12.2808C10.7486 12.2465 10.7961 12.2206 10.8472 12.2046C10.8984 12.1886 10.9521 12.1829 11.0055 12.1877C11.0588 12.1925 11.1107 12.2077 11.1582 12.2326C11.2056 12.2574 11.2477 12.2914 11.282 12.3325C11.3164 12.3736 11.3423 12.4211 11.3582 12.4722C11.3742 12.5234 11.38 12.5771 11.3752 12.6305L10.9689 17.0992C10.9598 17.2005 10.913 17.2947 10.8378 17.3631C10.7625 17.4316 10.6644 17.4693 10.5627 17.4689Z" fill="#EFEFEF"/>
<path d="M10.9138 25.1877C10.8501 25.1876 10.7872 25.1726 10.7304 25.1437C10.6735 25.1149 10.6243 25.0731 10.5866 25.0216C10.5489 24.9702 10.5238 24.9106 10.5134 24.8478C10.503 24.7849 10.5076 24.7204 10.5267 24.6596C10.9687 23.2739 11.3437 21.9011 11.6455 20.5788C11.6581 20.5252 11.6597 20.4696 11.6503 20.4154C11.6409 20.3611 11.6206 20.3093 11.5907 20.2631C11.5618 20.2177 11.5241 20.1785 11.4798 20.1479C11.4354 20.1174 11.3854 20.096 11.3327 20.0852L4.19122 18.5922C4.13872 18.5808 4.08444 18.5802 4.0317 18.5905C3.97896 18.6007 3.92888 18.6216 3.8845 18.6519C3.83851 18.6823 3.79912 18.7216 3.76869 18.7675C3.73825 18.8135 3.7174 18.8651 3.70738 18.9193C3.34292 20.8669 3.08902 22.8336 2.94688 24.8099C2.94451 24.8642 2.93127 24.9174 2.90797 24.9665C2.88466 25.0155 2.85175 25.0594 2.81118 25.0955C2.77061 25.1317 2.72321 25.1593 2.67178 25.1768C2.62035 25.1943 2.56593 25.2013 2.51175 25.1973C2.45757 25.1934 2.40473 25.1787 2.35635 25.154C2.30796 25.1293 2.26502 25.0952 2.23006 25.0536C2.19511 25.012 2.16884 24.9638 2.15283 24.9119C2.13681 24.86 2.13137 24.8054 2.13682 24.7514C2.28122 22.7443 2.53906 20.7469 2.9091 18.7689C2.93913 18.6094 3.00066 18.4574 3.0901 18.3219C3.17954 18.1863 3.29509 18.07 3.43001 17.9796C3.56492 17.8893 3.71649 17.8267 3.87586 17.7956C4.03523 17.7645 4.1992 17.7654 4.35819 17.7984L11.4997 19.2914C11.6583 19.325 11.8086 19.3898 11.942 19.4821C12.0753 19.5744 12.1889 19.6923 12.2762 19.829C12.3634 19.9656 12.4226 20.1183 12.4503 20.2781C12.478 20.4378 12.4735 20.6015 12.4373 20.7596C12.1306 22.1039 11.7467 23.4985 11.2998 24.9033C11.2739 24.9855 11.2226 25.0574 11.1532 25.1085C11.0839 25.1596 11 25.1874 10.9138 25.1877Z" fill="#EFEFEF"/>
</svg>

<svg xmlns="http://www.w3.org/2000/svg" width="26" height="26" fill="none" class="iconPrimary" viewBox="0 0 26 26">
    <path fill="currentColor" d="M2.824 21.938a54.641 54.641 0 0 0-.282 2.843h8.372c.27-.846.551-1.808.818-2.843H2.824ZM21.531.813h-2.437a2.033 2.033 0 0 0-2.032 2.03v21.938a.406.406 0 0 0 .407.407h5.687a.406.406 0 0 0 .407-.407V2.844A2.034 2.034 0 0 0 21.53.813ZM9.75 1.219a1.445 1.445 0 0 0-1.435 1.614l.622 5.292h1.625l.623-5.292A1.446 1.446 0 0 0 9.75 1.219Z"/>
    <path fill="#EFEFEF" d="M15.844 13h-9.75a1.219 1.219 0 0 1-1.219-1.219v-1.219a1.219 1.219 0 0 1 1.219-1.218h2.031a.406.406 0 1 1 0 .812H6.094a.407.407 0 0 0-.407.406v1.22a.406.406 0 0 0 .407.405h9.75a.406.406 0 0 1 0 .813Z"/>
    <path fill="#EFEFEF" d="M15.844 10.156H9.75a.407.407 0 0 1 0-.812h6.094a.406.406 0 0 1 0 .812Z"/>
    <path fill="#EFEFEF" d="M11.375 10.156a.407.407 0 0 1-.406-.406v-.813a.407.407 0 0 0-.406-.406H8.937a.406.406 0 0 0-.406.406v.813a.406.406 0 0 1-.812 0v-.813A1.219 1.219 0 0 1 8.937 7.72h1.626a1.219 1.219 0 0 1 1.218 1.218v.813a.407.407 0 0 1-.406.406ZM10.563 17.469H8.938a.406.406 0 0 1-.407-.37l-.406-4.469a.408.408 0 1 1 .813-.073l.37 4.1h.884l.37-4.1a.407.407 0 0 1 .596-.324.407.407 0 0 1 .217.397l-.406 4.47a.406.406 0 0 1-.406.369ZM10.914 25.188a.406.406 0 0 1-.387-.528 50.394 50.394 0 0 0 1.119-4.081.409.409 0 0 0-.313-.494L4.19 18.592a.395.395 0 0 0-.306.06.41.41 0 0 0-.178.267 52.5 52.5 0 0 0-.76 5.89.406.406 0 1 1-.81-.058c.144-2.007.402-4.004.772-5.982a1.222 1.222 0 0 1 1.45-.97l7.14 1.492a1.223 1.223 0 0 1 .938 1.469 51.649 51.649 0 0 1-1.137 4.143.406.406 0 0 1-.386.285Z"/>
</svg>
